markers.svg

<svg width="0" height="0" class="hidden"
    xmlns="http://www.w3.org/2000/svg"
    xmlns:xlink="http://www.w3.org/1999/xlink">
	<!--
		option 1: a200/600 for inner circle, 900 for border
		option 2: 800 for inner circle, white for border
	-->
    <symbol xmlns="http://www.w3.org/2000/svg" viewBox="0 0 24 24" id="marker_found">
        <circle fill="#5D4037" cx="12" cy="12" r="12" />
        <path fill="#FBC02D" d="M12,2C6.47,2 2,6.5 2,12A10,10 0 0,0 12,22A10,10 0 0,0 22,12A10,10 0 0,0 12,2M15.5,8A1.5,1.5 0 0,1 17,9.5A1.5,1.5 0 0,1 15.5,11A1.5,1.5 0 0,1 14,9.5A1.5,1.5 0 0,1 15.5,8M8.5,8A1.5,1.5 0 0,1 10,9.5A1.5,1.5 0 0,1 8.5,11A1.5,1.5 0 0,1 7,9.5A1.5,1.5 0 0,1 8.5,8M12,17.5C9.67,17.5 7.69,16.04 6.89,14H17.11C16.3,16.04 14.33,17.5 12,17.5Z" />
    </symbol>
    <symbol xmlns="http://www.w3.org/2000/svg" viewBox="0 0 24 24" id="marker_found2">
        <circle fill="#5D4037" cx="12" cy="12" r="12" />
        <path fill="#fdd835" d="M12,2C6.47,2 2,6.5 2,12A10,10 0 0,0 12,22A10,10 0 0,0 22,12A10,10 0 0,0 12,2M15.5,8A1.5,1.5 0 0,1 17,9.5A1.5,1.5 0 0,1 15.5,11A1.5,1.5 0 0,1 14,9.5A1.5,1.5 0 0,1 15.5,8M8.5,8A1.5,1.5 0 0,1 10,9.5A1.5,1.5 0 0,1 8.5,11A1.5,1.5 0 0,1 7,9.5A1.5,1.5 0 0,1 8.5,8M12,17.5C9.67,17.5 7.69,16.04 6.89,14H17.11C16.3,16.04 14.33,17.5 12,17.5Z" />
    </symbol>
    <symbol xmlns="http://www.w3.org/2000/svg" viewBox="0 0 24 24" id="marker_found_offline">
        <circle fill="#5D4037" cx="12" cy="12" r="12" />
        <path fill="#F57C00" d="M12,2C6.47,2 2,6.5 2,12A10,10 0 0,0 12,22A10,10 0 0,0 22,12A10,10 0 0,0 12,2M15.5,8A1.5,1.5 0 0,1 17,9.5A1.5,1.5 0 0,1 15.5,11A1.5,1.5 0 0,1 14,9.5A1.5,1.5 0 0,1 15.5,8M8.5,8A1.5,1.5 0 0,1 10,9.5A1.5,1.5 0 0,1 8.5,11A1.5,1.5 0 0,1 7,9.5A1.5,1.5 0 0,1 8.5,8M12,17.5C9.67,17.5 7.69,16.04 6.89,14H17.11C16.3,16.04 14.33,17.5 12,17.5Z" />
    </symbol>
    <symbol xmlns="http://www.w3.org/2000/svg" viewBox="0 0 24 24" id="marker_not_found_offline">
        <circle fill="#1A237E" cx="12" cy="12" r="12" />
        <path fill="#448AFF" d="m 12,2 c -5.5228475,10e-8 -9.9999999,4.4771525 -9.9999999,10 0,5.522847 4.4771524,10 9.9999999,10 5.522847,0 10,-4.477153 10,-10 C 22,6.4771525 17.522847,2 12,2 M 7.0000001,9.5 c 0,-0.8 0.7,-1.5 1.5,-1.5 C 9.3,8 10,8.7 10,9.5 10,10.3 9.3,11 8.5000001,11 c -0.8,0 -1.5,-0.7 -1.5,-1.5 M 6.89,17.5 C 7.8497124,15.16013 9.9475614,14.045447 12,14 c 1.75,0 4.130266,1.014652 5.11,3.5 M 15.5,11 C 14.7,11 14,10.3 14,9.5 14,8.7 14.7,8 15.5,8 16.3,8 17,8.7 17,9.5 17,10.3 16.3,11 15.5,11 Z" />
    </symbol>
    <symbol xmlns="http://www.w3.org/2000/svg" viewBox="0 0 24 24" id="marker_unknown_offline">
        <circle fill="#424242" cx="12" cy="12" r="12" />
        <path fill="#9E9E9E" d="M12,2A10,10 0 0,0 2,12A10,10 0 0,0 12,22A10,10 0 0,0 22,12A10,10 0 0,0 12,2M7,9.5C7,8.7 7.7,8 8.5,8C9.3,8 10,8.7 10,9.5C10,10.3 9.3,11 8.5,11C7.7,11 7,10.3 7,9.5M14.77,17.23C14.32,16.5 13.25,16 12,16C10.75,16 9.68,16.5 9.23,17.23L7.81,15.81C8.71,14.72 10.25,14 12,14C13.75,14 15.29,14.72 16.19,15.81L14.77,17.23M15.5,11C14.7,11 14,10.3 14,9.5C14,8.7 14.7,8 15.5,8C16.3,8 17,8.7 17,9.5C17,10.3 16.3,11 15.5,11Z" />
    </symbol>
    <symbol xmlns="http://www.w3.org/2000/svg" viewBox="0 0 24 24" id="marker_own">
        <circle fill="#FF6F00" cx="12" cy="12" r="12" />
        <circle fill="#fff" cx="12" cy="12" r="9" />
        <path fill="#FFAB00" d="M16.23,18L12,15.45L7.77,18L8.89,13.19L5.16,9.96L10.08,9.54L12,5L13.92,9.53L18.84,9.95L15.11,13.18L16.23,18M12,2C6.47,2 2,6.5 2,12A10,10 0 0,0 12,22A10,10 0 0,0 22,12A10,10 0 0,0 12,2Z" />
    </symbol>
    <symbol xmlns="http://www.w3.org/2000/svg" viewBox="0 0 24 24" id="marker_own3">
        <circle fill="#fff" cx="12" cy="12" r="12" />
        <path fill="#FFAB00" d="M16.23,18L12,15.45L7.77,18L8.89,13.19L5.16,9.96L10.08,9.54L12,5L13.92,9.53L18.84,9.95L15.11,13.18L16.23,18M12,2C6.47,2 2,6.5 2,12A10,10 0 0,0 12,22A10,10 0 0,0 22,12A10,10 0 0,0 12,2Z" />
    </symbol>
    <symbol xmlns="http://www.w3.org/2000/svg" viewBox="0 0 24 24" id="marker_own2">
        <circle fill="#fff" cx="12" cy="12" r="12" />
        <circle fill="#FFAB00" cx="12" cy="12" r="10" />
        <g transform="translate(3,3)">
            <path fill="#fff" d="M12,17.27L18.18,21L16.54,13.97L22,9.24L14.81,8.62L12,2L9.19,8.62L2,9.24L7.45,13.97L5.82,21L12,17.27Z" transform="scale(0.75)" />
        </g>
    </symbol>
    <symbol xmlns="http://www.w3.org/2000/svg" viewBox="0 0 24 24" id="marker_personalnote">
        <circle fill="#33691E" cx="12" cy="12" r="12" />
        <circle fill="#689F38" cx="12" cy="12" r="10" />
        <g transform="translate(4,3.5)">
            <path fill="#fff" d="M16.84,2.73C16.45,2.73 16.07,2.88 15.77,3.17L13.65,5.29L18.95,10.6L21.07,8.5C21.67,7.89 21.67,6.94 21.07,6.36L17.9,3.17C17.6,2.88 17.22,2.73 16.84,2.73M12.94,6L4.84,14.11L7.4,14.39L7.58,16.68L9.86,16.85L10.15,19.41L18.25,11.3M4.25,15.04L2.5,21.73L9.2,19.94L8.96,17.78L6.65,17.61L6.47,15.29" transform="scale(0.666666667)" />
        </g>
    </symbol>
    <symbol xmlns="http://www.w3.org/2000/svg" viewBox="0 0 24 24" id="marker_personalnote2">
        <circle fill="#fff" cx="12" cy="12" r="12" />
        <circle fill="#689F38" cx="12" cy="12" r="10" />
        <g transform="translate(4,3.5)">
            <path fill="#fff" d="M16.84,2.73C16.45,2.73 16.07,2.88 15.77,3.17L13.65,5.29L18.95,10.6L21.07,8.5C21.67,7.89 21.67,6.94 21.07,6.36L17.9,3.17C17.6,2.88 17.22,2.73 16.84,2.73M12.94,6L4.84,14.11L7.4,14.39L7.58,16.68L9.86,16.85L10.15,19.41L18.25,11.3M4.25,15.04L2.5,21.73L9.2,19.94L8.96,17.78L6.65,17.61L6.47,15.29" transform="scale(0.666666667)" />
        </g>
    </symbol>
    <symbol xmlns="http://www.w3.org/2000/svg" viewBox="0 0 24 24" id="marker_maintenance2">
        <circle fill="#fff" cx="12" cy="12" r="12" />
        <circle fill="#C62828" cx="12" cy="12" r="10" />
        <path fill="#fff" d="M18 14H14V18H10V14H6V10H10V6H14V10H18" />
    </symbol>
    <symbol xmlns="http://www.w3.org/2000/svg" viewBox="0 0 24 24" id="marker_maintenance">
        <circle fill="#B71C1C" cx="12" cy="12" r="12" />
        <circle fill="#FF5252" cx="12" cy="12" r="10" />
        <path fill="#fff" d="M18 14H14V18H10V14H6V10H10V6H14V10H18" />
    </symbol>
    <symbol xmlns="http://www.w3.org/2000/svg" viewBox="0 0 24 24" id="marker_maintenance3">
        <circle fill="#B71C1C" cx="12" cy="12" r="12" />
        <circle fill="#E53935" cx="12" cy="12" r="10" />
        <path fill="#fff" d="M18 14H14V18H10V14H6V10H10V6H14V10H18" />
    </symbol>
    <symbol xmlns="http://www.w3.org/2000/svg" viewBox="0 0 24 24" id="marker_owner_maintenance">
        <circle fill="#1B5E20" cx="12" cy="12" r="12" />
        <circle fill="#43A047" cx="12" cy="12" r="10" />
        <path fill="#fff" d="M18 14H14V18H10V14H6V10H10V6H14V10H18" />
    </symbol>
    <symbol xmlns="http://www.w3.org/2000/svg" viewBox="0 0 24 24" id="marker_owner_maintenance2">
        <circle fill="#fff" cx="12" cy="12" r="12" />
        <circle fill="#2E7D32" cx="12" cy="12" r="10" />
        <path fill="#fff" d="M18 14H14V18H10V14H6V10H10V6H14V10H18" />
    </symbol>
    <symbol xmlns="http://www.w3.org/2000/svg" viewBox="0 0 24 24" id="marker_note">
        <circle fill="#3E2723" cx="12" cy="12" r="12" />
        <circle fill="#795548" cx="12" cy="12" r="10" />
        <path fill="#fff" d="M14,10H19.5L14,4.5V10M5,3H15L21,9V19A2,2 0 0,1 19,21H5C3.89,21 3,20.1 3,19V5C3,3.89 3.89,3 5,3M5,12V14H19V12H5M5,16V18H14V16H5Z" transform="translate(5.5,4.1) scale(0.57,0.65)" />
    </symbol>
    <symbol xmlns="http://www.w3.org/2000/svg" viewBox="0 0 24 24" id="marker_note2">
        <circle fill="#fff" cx="12" cy="12" r="12" />
        <circle fill="#4e342e" cx="12" cy="12" r="10" />
        <path fill="#fff" d="M14,10H19.5L14,4.5V10M5,3H15L21,9V19A2,2 0 0,1 19,21H5C3.89,21 3,20.1 3,19V5C3,3.89 3.89,3 5,3M5,12V14H19V12H5M5,16V18H14V16H5Z" transform="translate(5.5,4.1) scale(0.57,0.65)" />
    </symbol>
    <symbol xmlns="http://www.w3.org/2000/svg" viewBox="0 0 24 24" id="marker_archive">
        <circle fill="#B71C1C" cx="12" cy="12" r="12" />
        <circle fill="#FF5252" cx="12" cy="12" r="10" />
 <path d="m7.2 16.8 9.6-9.6" stroke="#fff" stroke-width="2.5"/>
 <path d="m16.8 16.8-9.6-9.6" stroke="#fff" stroke-width="2.5"/>
        <!--<line x1="30%" y1="70%" x2="70%" y2="30%" stroke="#fff" stroke-width="2.5" />
        <line x1="70%" y1="70%" x2="30%" y2="30%" stroke="#fff" stroke-width="2.5" />-->
    </symbol>
    <symbol xmlns="http://www.w3.org/2000/svg" viewBox="0 0 24 24" id="marker_archive3">
        <circle fill="#4A148C" cx="12" cy="12" r="12" />
        <circle fill="#9C27B0" cx="12" cy="12" r="10" />
        <g transform="translate(4.5,4.5)">
            <path fill="#fff" d="M10,2H14C17.31,2 19,4.69 19,8V18.66C16.88,17.63 15.07,17 12,17C8.93,17 7.12,17.63 5,18.66V8C5,4.69 6.69,2 10,2M8,8V9.5H16V8H8M9,12V13.5H15V12H9M3,22V21.31C5.66,19.62 13.23,15.84 21,21.25V22H3Z" transform="scale(0.625)" />
        </g>
    </symbol>
    <symbol xmlns="http://www.w3.org/2000/svg" viewBox="0 0 24 24" id="marker_archive2">
        <circle fill="#fff" cx="12" cy="12" r="12" />
        <circle fill="#7b1fa2" cx="12" cy="12" r="10" />
        <g transform="translate(4.5,4.5)">
            <path fill="#fff" d="M10,2H14C17.31,2 19,4.69 19,8V18.66C16.88,17.63 15.07,17 12,17C8.93,17 7.12,17.63 5,18.66V8C5,4.69 6.69,2 10,2M8,8V9.5H16V8H8M9,12V13.5H15V12H9M3,22V21.31C5.66,19.62 13.23,15.84 21,21.25V22H3Z" transform="scale(0.625)" />
        </g>
    </symbol>
    <symbol xmlns="http://www.w3.org/2000/svg" viewBox="0 0 24 24" id="marker_usermodifiedcoords">
        <circle fill="#01579B" cx="12" cy="12" r="12" />
        <circle fill="#039BE5" cx="12" cy="12" r="10" />
        <g transform="translate(4,3.5)">
            <path fill="#fff" d="M14.4,6L14,4H5V21H7V14H12.6L13,16H20V6H14.4Z" transform="scale(0.666666667)" />
        </g>
    </symbol>
    <symbol xmlns="http://www.w3.org/2000/svg" viewBox="0 0 24 24" id="marker_usermodifiedcoords2">
        <circle fill="#fff" cx="12" cy="12" r="12" />
        <circle fill="#0288D1" cx="12" cy="12" r="10" />
        <g transform="translate(4,3.5)">
            <path fill="#fff" d="M14.4,6L14,4H5V21H7V14H12.6L13,16H20V6H14.4Z" transform="scale(0.666666667)" />
        </g>
    </symbol>
    <symbol xmlns="http://www.w3.org/2000/svg" viewBox="0 0 24 24" id="marker_calendar">
        <circle fill="#B71C1C" cx="12" cy="12" r="12" />
        <circle fill="#FF5252" cx="12" cy="12" r="10" />
        <g transform="translate(4.5,4.5)">
            <path fill="#fff" d="M19,19H5V8H19M16,1V3H8V1H6V3H5C3.89,3 3,3.89 3,5V19A2,2 0 0,0 5,21H19A2,2 0 0,0 21,19V5C21,3.89 20.1,3 19,3H18V1M17,12H12V17H17V12Z" transform="scale(0.625)" />
        </g>
    </symbol>
    <symbol xmlns="http://www.w3.org/2000/svg" viewBox="0 0 24 24" id="marker_calendar3">
        <circle fill="#B71C1C" cx="12" cy="12" r="12" />
        <circle fill="#F44336" cx="12" cy="12" r="10" />
        <g transform="translate(4.5,4.5)">
            <path fill="#fff" d="M19,19H5V8H19M16,1V3H8V1H6V3H5C3.89,3 3,3.89 3,5V19A2,2 0 0,0 5,21H19A2,2 0 0,0 21,19V5C21,3.89 20.1,3 19,3H18V1M17,12H12V17H17V12Z" transform="scale(0.625)" />
        </g>
    </symbol>
    <symbol xmlns="http://www.w3.org/2000/svg" viewBox="0 0 24 24" id="marker_calendar2">
        <circle fill="#fff" cx="12" cy="12" r="12" />
        <circle fill="#D32F2F" cx="12" cy="12" r="10" />
        <g transform="translate(4.5,4.5)">
            <path fill="#fff" d="M19,19H5V8H19M16,1V3H8V1H6V3H5C3.89,3 3,3.89 3,5V19A2,2 0 0,0 5,21H19A2,2 0 0,0 21,19V5C21,3.89 20.1,3 19,3H18V1M17,12H12V17H17V12Z" transform="scale(0.625)" />
        </g>
    </symbol>
    <!-- want to keep this small as most caches will have it -->
    <symbol xmlns="http://www.w3.org/2000/svg" viewBox="0 0 24 24" id="marker_stored">
        <g transform="translate(3,1.8) scale(0.8)">
 <path d="m17.833 1.5h-14c-1.295 0-2.3333 1.05-2.3333 2.3333v16.333c1.1e-6 1.2887 1.0447 2.3333 2.3333 2.3333h16.333c1.2887-1e-6 2.3333-1.0447 2.3333-2.3333v-14z" fill="#fff" style="paint-order:normal"/>
 <path d="m15 9h-10v-4h10m-3 14a3 3 0 0 1-3-3 3 3 0 0 1 3-3 3 3 0 0 1 3 3 3 3 0 0 1-3 3m5-16h-12c-1.11 0-2 0.9-2 2v14a2 2 0 0 0 2 2h14a2 2 0 0 0 2-2v-12l-4-4z" fill="#3c3c3c" style="paint-order:normal"/>
        </g>
    </symbol>
</svg>

<svg width="0" height="0" class="hidden"
    xmlns="http://www.w3.org/2000/svg"
    xmlns:xlink="http://www.w3.org/1999/xlink">
	<!--
		option 1: a200/600 for inner circle, 900 for border
		option 2: 800 for inner circle, white for border
	-->
    <symbol xmlns="http://www.w3.org/2000/svg" viewBox="0 0 24 24" id="marker_found">
        <circle fill="#5D4037" cx="12" cy="12" r="12" />
        <path fill="#FBC02D" d="M12,2C6.47,2 2,6.5 2,12A10,10 0 0,0 12,22A10,10 0 0,0 22,12A10,10 0 0,0 12,2M15.5,8A1.5,1.5 0 0,1 17,9.5A1.5,1.5 0 0,1 15.5,11A1.5,1.5 0 0,1 14,9.5A1.5,1.5 0 0,1 15.5,8M8.5,8A1.5,1.5 0 0,1 10,9.5A1.5,1.5 0 0,1 8.5,11A1.5,1.5 0 0,1 7,9.5A1.5,1.5 0 0,1 8.5,8M12,17.5C9.67,17.5 7.69,16.04 6.89,14H17.11C16.3,16.04 14.33,17.5 12,17.5Z" />
    </symbol>
    <symbol xmlns="http://www.w3.org/2000/svg" viewBox="0 0 24 24" id="marker_found2">
        <circle fill="#5D4037" cx="12" cy="12" r="12" />
        <path fill="#fdd835" d="M12,2C6.47,2 2,6.5 2,12A10,10 0 0,0 12,22A10,10 0 0,0 22,12A10,10 0 0,0 12,2M15.5,8A1.5,1.5 0 0,1 17,9.5A1.5,1.5 0 0,1 15.5,11A1.5,1.5 0 0,1 14,9.5A1.5,1.5 0 0,1 15.5,8M8.5,8A1.5,1.5 0 0,1 10,9.5A1.5,1.5 0 0,1 8.5,11A1.5,1.5 0 0,1 7,9.5A1.5,1.5 0 0,1 8.5,8M12,17.5C9.67,17.5 7.69,16.04 6.89,14H17.11C16.3,16.04 14.33,17.5 12,17.5Z" />
    </symbol>
    <symbol xmlns="http://www.w3.org/2000/svg" viewBox="0 0 24 24" id="marker_found_offline">
        <circle fill="#5D4037" cx="12" cy="12" r="12" />
        <path fill="#F57C00" d="M12,2C6.47,2 2,6.5 2,12A10,10 0 0,0 12,22A10,10 0 0,0 22,12A10,10 0 0,0 12,2M15.5,8A1.5,1.5 0 0,1 17,9.5A1.5,1.5 0 0,1 15.5,11A1.5,1.5 0 0,1 14,9.5A1.5,1.5 0 0,1 15.5,8M8.5,8A1.5,1.5 0 0,1 10,9.5A1.5,1.5 0 0,1 8.5,11A1.5,1.5 0 0,1 7,9.5A1.5,1.5 0 0,1 8.5,8M12,17.5C9.67,17.5 7.69,16.04 6.89,14H17.11C16.3,16.04 14.33,17.5 12,17.5Z" />
    </symbol>
    <symbol xmlns="http://www.w3.org/2000/svg" viewBox="0 0 24 24" id="marker_not_found_offline">
        <circle fill="#1A237E" cx="12" cy="12" r="12" />
        <path fill="#448AFF" d="m 12,2 c -5.5228475,10e-8 -9.9999999,4.4771525 -9.9999999,10 0,5.522847 4.4771524,10 9.9999999,10 5.522847,0 10,-4.477153 10,-10 C 22,6.4771525 17.522847,2 12,2 M 7.0000001,9.5 c 0,-0.8 0.7,-1.5 1.5,-1.5 C 9.3,8 10,8.7 10,9.5 10,10.3 9.3,11 8.5000001,11 c -0.8,0 -1.5,-0.7 -1.5,-1.5 M 6.89,17.5 C 7.8497124,15.16013 9.9475614,14.045447 12,14 c 1.75,0 4.130266,1.014652 5.11,3.5 M 15.5,11 C 14.7,11 14,10.3 14,9.5 14,8.7 14.7,8 15.5,8 16.3,8 17,8.7 17,9.5 17,10.3 16.3,11 15.5,11 Z" />
    </symbol>
    <symbol xmlns="http://www.w3.org/2000/svg" viewBox="0 0 24 24" id="marker_unknown_offline">
        <circle fill="#424242" cx="12" cy="12" r="12" />
        <path fill="#9E9E9E" d="M12,2A10,10 0 0,0 2,12A10,10 0 0,0 12,22A10,10 0 0,0 22,12A10,10 0 0,0 12,2M7,9.5C7,8.7 7.7,8 8.5,8C9.3,8 10,8.7 10,9.5C10,10.3 9.3,11 8.5,11C7.7,11 7,10.3 7,9.5M14.77,17.23C14.32,16.5 13.25,16 12,16C10.75,16 9.68,16.5 9.23,17.23L7.81,15.81C8.71,14.72 10.25,14 12,14C13.75,14 15.29,14.72 16.19,15.81L14.77,17.23M15.5,11C14.7,11 14,10.3 14,9.5C14,8.7 14.7,8 15.5,8C16.3,8 17,8.7 17,9.5C17,10.3 16.3,11 15.5,11Z" />
    </symbol>
    <symbol xmlns="http://www.w3.org/2000/svg" viewBox="0 0 24 24" id="marker_own">
        <circle fill="#FF6F00" cx="12" cy="12" r="12" />
        <circle fill="#fff" cx="12" cy="12" r="9" />
        <path fill="#FFAB00" d="M16.23,18L12,15.45L7.77,18L8.89,13.19L5.16,9.96L10.08,9.54L12,5L13.92,9.53L18.84,9.95L15.11,13.18L16.23,18M12,2C6.47,2 2,6.5 2,12A10,10 0 0,0 12,22A10,10 0 0,0 22,12A10,10 0 0,0 12,2Z" />
    </symbol>
    <symbol xmlns="http://www.w3.org/2000/svg" viewBox="0 0 24 24" id="marker_own3">
        <circle fill="#fff" cx="12" cy="12" r="12" />
        <path fill="#FFAB00" d="M16.23,18L12,15.45L7.77,18L8.89,13.19L5.16,9.96L10.08,9.54L12,5L13.92,9.53L18.84,9.95L15.11,13.18L16.23,18M12,2C6.47,2 2,6.5 2,12A10,10 0 0,0 12,22A10,10 0 0,0 22,12A10,10 0 0,0 12,2Z" />
    </symbol>
    <symbol xmlns="http://www.w3.org/2000/svg" viewBox="0 0 24 24" id="marker_own2">
        <circle fill="#fff" cx="12" cy="12" r="12" />
        <circle fill="#FFAB00" cx="12" cy="12" r="10" />
        <g transform="translate(3,3)">
            <path fill="#fff" d="M12,17.27L18.18,21L16.54,13.97L22,9.24L14.81,8.62L12,2L9.19,8.62L2,9.24L7.45,13.97L5.82,21L12,17.27Z" transform="scale(0.75)" />
        </g>
    </symbol>
    <symbol xmlns="http://www.w3.org/2000/svg" viewBox="0 0 24 24" id="marker_personalnote">
        <circle fill="#33691E" cx="12" cy="12" r="12" />
        <circle fill="#689F38" cx="12" cy="12" r="10" />
        <g transform="translate(4,3.5)">
            <path fill="#fff" d="M16.84,2.73C16.45,2.73 16.07,2.88 15.77,3.17L13.65,5.29L18.95,10.6L21.07,8.5C21.67,7.89 21.67,6.94 21.07,6.36L17.9,3.17C17.6,2.88 17.22,2.73 16.84,2.73M12.94,6L4.84,14.11L7.4,14.39L7.58,16.68L9.86,16.85L10.15,19.41L18.25,11.3M4.25,15.04L2.5,21.73L9.2,19.94L8.96,17.78L6.65,17.61L6.47,15.29" transform="scale(0.666666667)" />
        </g>
    </symbol>
    <symbol xmlns="http://www.w3.org/2000/svg" viewBox="0 0 24 24" id="marker_personalnote2">
        <circle fill="#fff" cx="12" cy="12" r="12" />
        <circle fill="#689F38" cx="12" cy="12" r="10" />
        <g transform="translate(4,3.5)">
            <path fill="#fff" d="M16.84,2.73C16.45,2.73 16.07,2.88 15.77,3.17L13.65,5.29L18.95,10.6L21.07,8.5C21.67,7.89 21.67,6.94 21.07,6.36L17.9,3.17C17.6,2.88 17.22,2.73 16.84,2.73M12.94,6L4.84,14.11L7.4,14.39L7.58,16.68L9.86,16.85L10.15,19.41L18.25,11.3M4.25,15.04L2.5,21.73L9.2,19.94L8.96,17.78L6.65,17.61L6.47,15.29" transform="scale(0.666666667)" />
        </g>
    </symbol>
    <symbol xmlns="http://www.w3.org/2000/svg" viewBox="0 0 24 24" id="marker_maintenance2">
        <circle fill="#fff" cx="12" cy="12" r="12" />
        <circle fill="#C62828" cx="12" cy="12" r="10" />
        <path fill="#fff" d="M18 14H14V18H10V14H6V10H10V6H14V10H18" />
    </symbol>
    <symbol xmlns="http://www.w3.org/2000/svg" viewBox="0 0 24 24" id="marker_maintenance">
        <circle fill="#B71C1C" cx="12" cy="12" r="12" />
        <circle fill="#FF5252" cx="12" cy="12" r="10" />
        <path fill="#fff" d="M18 14H14V18H10V14H6V10H10V6H14V10H18" />
    </symbol>
    <symbol xmlns="http://www.w3.org/2000/svg" viewBox="0 0 24 24" id="marker_maintenance3">
        <circle fill="#B71C1C" cx="12" cy="12" r="12" />
        <circle fill="#E53935" cx="12" cy="12" r="10" />
        <path fill="#fff" d="M18 14H14V18H10V14H6V10H10V6H14V10H18" />
    </symbol>
    <symbol xmlns="http://www.w3.org/2000/svg" viewBox="0 0 24 24" id="marker_owner_maintenance">
        <circle fill="#1B5E20" cx="12" cy="12" r="12" />
        <circle fill="#43A047" cx="12" cy="12" r="10" />
        <path fill="#fff" d="M18 14H14V18H10V14H6V10H10V6H14V10H18" />
    </symbol>
    <symbol xmlns="http://www.w3.org/2000/svg" viewBox="0 0 24 24" id="marker_owner_maintenance2">
        <circle fill="#fff" cx="12" cy="12" r="12" />
        <circle fill="#2E7D32" cx="12" cy="12" r="10" />
        <path fill="#fff" d="M18 14H14V18H10V14H6V10H10V6H14V10H18" />
    </symbol>
    <symbol xmlns="http://www.w3.org/2000/svg" viewBox="0 0 24 24" id="marker_note">
        <circle fill="#3E2723" cx="12" cy="12" r="12" />
        <circle fill="#795548" cx="12" cy="12" r="10" />
        <path fill="#fff" d="M14,10H19.5L14,4.5V10M5,3H15L21,9V19A2,2 0 0,1 19,21H5C3.89,21 3,20.1 3,19V5C3,3.89 3.89,3 5,3M5,12V14H19V12H5M5,16V18H14V16H5Z" transform="translate(5.5,4.1) scale(0.57,0.65)" />
    </symbol>
    <symbol xmlns="http://www.w3.org/2000/svg" viewBox="0 0 24 24" id="marker_note2">
        <circle fill="#fff" cx="12" cy="12" r="12" />
        <circle fill="#4e342e" cx="12" cy="12" r="10" />
        <path fill="#fff" d="M14,10H19.5L14,4.5V10M5,3H15L21,9V19A2,2 0 0,1 19,21H5C3.89,21 3,20.1 3,19V5C3,3.89 3.89,3 5,3M5,12V14H19V12H5M5,16V18H14V16H5Z" transform="translate(5.5,4.1) scale(0.57,0.65)" />
    </symbol>
    <symbol xmlns="http://www.w3.org/2000/svg" viewBox="0 0 24 24" id="marker_archive">
        <circle fill="#B71C1C" cx="12" cy="12" r="12" />
        <circle fill="#FF5252" cx="12" cy="12" r="10" />
 <path d="m7.2 16.8 9.6-9.6" stroke="#fff" stroke-width="2.5"/>
 <path d="m16.8 16.8-9.6-9.6" stroke="#fff" stroke-width="2.5"/>
        <!--<line x1="30%" y1="70%" x2="70%" y2="30%" stroke="#fff" stroke-width="2.5" />
        <line x1="70%" y1="70%" x2="30%" y2="30%" stroke="#fff" stroke-width="2.5" />-->
    </symbol>
    <symbol xmlns="http://www.w3.org/2000/svg" viewBox="0 0 24 24" id="marker_archive3">
        <circle fill="#4A148C" cx="12" cy="12" r="12" />
        <circle fill="#9C27B0" cx="12" cy="12" r="10" />
        <g transform="translate(4.5,4.5)">
            <path fill="#fff" d="M10,2H14C17.31,2 19,4.69 19,8V18.66C16.88,17.63 15.07,17 12,17C8.93,17 7.12,17.63 5,18.66V8C5,4.69 6.69,2 10,2M8,8V9.5H16V8H8M9,12V13.5H15V12H9M3,22V21.31C5.66,19.62 13.23,15.84 21,21.25V22H3Z" transform="scale(0.625)" />
        </g>
    </symbol>
    <symbol xmlns="http://www.w3.org/2000/svg" viewBox="0 0 24 24" id="marker_archive2">
        <circle fill="#fff" cx="12" cy="12" r="12" />
        <circle fill="#7b1fa2" cx="12" cy="12" r="10" />
        <g transform="translate(4.5,4.5)">
            <path fill="#fff" d="M10,2H14C17.31,2 19,4.69 19,8V18.66C16.88,17.63 15.07,17 12,17C8.93,17 7.12,17.63 5,18.66V8C5,4.69 6.69,2 10,2M8,8V9.5H16V8H8M9,12V13.5H15V12H9M3,22V21.31C5.66,19.62 13.23,15.84 21,21.25V22H3Z" transform="scale(0.625)" />
        </g>
    </symbol>
    <symbol xmlns="http://www.w3.org/2000/svg" viewBox="0 0 24 24" id="marker_usermodifiedcoords">
        <circle fill="#01579B" cx="12" cy="12" r="12" />
        <circle fill="#039BE5" cx="12" cy="12" r="10" />
        <g transform="translate(4,3.5)">
            <path fill="#fff" d="M14.4,6L14,4H5V21H7V14H12.6L13,16H20V6H14.4Z" transform="scale(0.666666667)" />
        </g>
    </symbol>
    <symbol xmlns="http://www.w3.org/2000/svg" viewBox="0 0 24 24" id="marker_usermodifiedcoords2">
        <circle fill="#fff" cx="12" cy="12" r="12" />
        <circle fill="#0288D1" cx="12" cy="12" r="10" />
        <g transform="translate(4,3.5)">
            <path fill="#fff" d="M14.4,6L14,4H5V21H7V14H12.6L13,16H20V6H14.4Z" transform="scale(0.666666667)" />
        </g>
    </symbol>
    <symbol xmlns="http://www.w3.org/2000/svg" viewBox="0 0 24 24" id="marker_calendar">
        <circle fill="#B71C1C" cx="12" cy="12" r="12" />
        <circle fill="#FF5252" cx="12" cy="12" r="10" />
        <g transform="translate(4.5,4.5)">
            <path fill="#fff" d="M19,19H5V8H19M16,1V3H8V1H6V3H5C3.89,3 3,3.89 3,5V19A2,2 0 0,0 5,21H19A2,2 0 0,0 21,19V5C21,3.89 20.1,3 19,3H18V1M17,12H12V17H17V12Z" transform="scale(0.625)" />
        </g>
    </symbol>
    <symbol xmlns="http://www.w3.org/2000/svg" viewBox="0 0 24 24" id="marker_calendar3">
        <circle fill="#B71C1C" cx="12" cy="12" r="12" />
        <circle fill="#F44336" cx="12" cy="12" r="10" />
        <g transform="translate(4.5,4.5)">
            <path fill="#fff" d="M19,19H5V8H19M16,1V3H8V1H6V3H5C3.89,3 3,3.89 3,5V19A2,2 0 0,0 5,21H19A2,2 0 0,0 21,19V5C21,3.89 20.1,3 19,3H18V1M17,12H12V17H17V12Z" transform="scale(0.625)" />
        </g>
    </symbol>
    <symbol xmlns="http://www.w3.org/2000/svg" viewBox="0 0 24 24" id="marker_calendar2">
        <circle fill="#fff" cx="12" cy="12" r="12" />
        <circle fill="#D32F2F" cx="12" cy="12" r="10" />
        <g transform="translate(4.5,4.5)">
            <path fill="#fff" d="M19,19H5V8H19M16,1V3H8V1H6V3H5C3.89,3 3,3.89 3,5V19A2,2 0 0,0 5,21H19A2,2 0 0,0 21,19V5C21,3.89 20.1,3 19,3H18V1M17,12H12V17H17V12Z" transform="scale(0.625)" />
        </g>
    </symbol>
    <!-- want to keep this small as most caches will have it -->
    <symbol xmlns="http://www.w3.org/2000/svg" viewBox="0 0 24 24" id="marker_stored">
        <g transform="translate(4,2)">
            <path fill="#3c3c3c" stroke-width="1" stroke="#fff" d="M15,9H5V5H15M12,19A3,3 0 0,1 9,16A3,3 0 0,1 12,13A3,3 0 0,1 15,16A3,3 0 0,1 12,19M17,3H5C3.89,3 3,3.9 3,5V19A2,2 0 0,0 5,21H19A2,2 0 0,0 21,19V7L17,3Z" transform="scale(0.75)" />
        </g>
    </symbol>
</svg>
